X: 1671
T: Annwyl Ioan
R: reel
M: 4/4
K: Gmajor
|:E|DGFG DGBG|dGcA BGEG|AFDF AFcA|BGAF GFE^D|
D2 FG DGBG|d2 cA BGEG|cAFA FEDF|GDFA G3:|
|:d|gGfG eGB[Gd]|gGce dgeg|ecGc dBGB|cABG A^cdf|
gGfG eGdg|dGcG dgcg|eGce dg[ce]g|cAF[DA] G3:|

